icons/atom.svg

<svg width="24" height="24" viewBox="0 0 24 24" fill="none" xmlns="http://www.w3.org/2000/svg">
<path fill-rule="evenodd" clip-rule="evenodd" d="M18.4236 2.00081C19.4162 1.98348 20.3695 2.2427 21.0634 2.93659C21.7513 3.62447 22.0167 4.57271 21.9992 5.57636C21.9817 6.57445 21.6878 7.69054 21.1914 8.84863C20.7559 9.86489 20.1574 10.9301 19.4289 12C20.1548 13.0661 20.7543 14.1314 21.1914 15.1513C21.6929 16.3214 21.9819 17.4343 21.9992 18.4236C22.0165 19.4162 21.7573 20.3695 21.0634 21.0634C20.3695 21.7573 19.4162 22.0165 18.4236 21.9992C17.4343 21.9819 16.3214 21.6929 15.1513 21.1914C14.1314 20.7543 13.0661 20.1548 12 19.4289C10.9339 20.1548 9.86859 20.7543 8.84864 21.1914C7.67858 21.6929 6.56567 21.9819 5.57636 21.9992C4.58373 22.0165 3.63048 21.7573 2.93659 21.0634C2.2427 20.3695 1.98348 19.4162 2.00081 18.4236C2.01808 17.4343 2.30709 16.3214 2.80854 15.1513C3.24566 14.1314 3.84517 13.0661 4.5711 12C3.84517 10.9339 3.24566 9.86859 2.80854 8.84863C2.30708 7.67858 2.01808 6.56567 2.00081 5.57636C1.98348 4.58373 2.2427 3.63048 2.93659 2.93659C3.62447 2.24872 4.57271 1.98329 5.57636 2.00081C6.57445 2.01823 7.69054 2.31221 8.84863 2.80854C9.86489 3.24408 10.9301 3.84261 12 4.5711C13.0661 3.84517 14.1314 3.24566 15.1513 2.80854C16.3214 2.30708 17.4343 2.01808 18.4236 2.00081ZM10.2922 5.84162C9.5158 5.34975 8.76445 4.94839 8.0608 4.64683C7.04622 4.21201 6.19432 4.0119 5.54145 4.00051C4.89415 3.98921 4.54082 4.16079 4.35081 4.35081C4.15821 4.5434 3.98928 4.89869 4.0005 5.54145C4.01178 6.18755 4.20802 7.0369 4.64683 8.0608C4.9519 8.77262 5.35499 9.52414 5.84161 10.2922C6.48799 9.49171 7.19616 8.70457 7.95037 7.95037C8.70457 7.19616 9.4917 6.48799 10.2922 5.84162ZM7.04148 12C7.72805 11.1095 8.50962 10.2195 9.36458 9.36458C10.2195 8.50963 11.1095 7.72806 12 7.04148C12.9003 7.73569 13.7902 8.51934 14.6354 9.36458C15.4903 10.2195 16.2719 11.1095 16.9585 12C16.2643 12.9003 15.4806 13.7902 14.6354 14.6354C13.7804 15.4904 12.8905 16.2719 12 16.9585C11.1095 16.2719 10.2195 15.4904 9.36458 14.6354C8.50962 13.7804 7.72805 12.8905 7.04148 12ZM5.84161 13.7078C5.355 14.4758 4.9519 15.2274 4.64683 15.9392C4.20802 16.9631 4.01178 17.8124 4.00051 18.4585C3.98929 19.1013 4.15821 19.4566 4.35081 19.6492C4.54341 19.8418 4.89869 20.0107 5.54146 19.9995C6.18755 19.9882 7.0369 19.792 8.0608 19.3531C8.77262 19.0481 9.52414 18.645 10.2922 18.1584C9.49171 17.512 8.70457 16.8038 7.95037 16.0496C7.19616 15.2954 6.48799 14.5083 5.84161 13.7078ZM13.7078 18.1584C14.4758 18.645 15.2274 19.0481 15.9392 19.3531C16.9631 19.792 17.8124 19.9882 18.4585 19.9995C19.1013 20.0107 19.4566 19.8418 19.6492 19.6492C19.8418 19.4566 20.0107 19.1013 19.9995 18.4585C19.9882 17.8124 19.792 16.9631 19.3531 15.9392C19.0481 15.2274 18.645 14.4758 18.1584 13.7078C17.5097 14.5111 16.801 15.2982 16.0496 16.0496C15.2954 16.8038 14.5083 17.512 13.7078 18.1584ZM18.1584 10.2922C17.512 9.4917 16.8038 8.70457 16.0496 7.95037C15.2982 7.19894 14.5111 6.49029 13.7077 5.84161C14.4758 5.35499 15.2274 4.9519 15.9392 4.64683C16.9631 4.20802 17.8124 4.01178 18.4585 4.0005C19.1013 3.98928 19.4566 4.15821 19.6492 4.3508C19.8392 4.54082 20.0108 4.89415 19.9995 5.54145C19.9881 6.19432 19.788 7.04622 19.3531 8.0608C19.0516 8.76445 18.6502 9.5158 18.1584 10.2922ZM12 11C12.5523 11 13 11.4477 13 12V12.0118C13 12.5641 12.5523 13.0118 12 13.0118C11.4477 13.0118 11 12.5641 11 12.0118V12C11 11.4477 11.4477 11 12 11Z" fill="black"/>
</svg>

<svg
  width="24"
  height="24"
  viewBox="0 0 24 24"
  xmlns="http://www.w3.org/2000/svg"
>
  <path
    fill-rule="evenodd"
    clip-rule="evenodd"
    d="M18.424 2c.992-.017 1.945.243 2.64.937.687.687.953 1.636.935 2.64-.017.997-.311 2.114-.808 3.272-.435 1.016-1.034 2.081-1.762 3.151.726 1.066 1.325 2.131 1.762 3.151.502 1.17.79 2.283.808 3.273.018.992-.242 1.945-.936 2.64-.694.693-1.647.953-2.64.935-.989-.017-2.102-.306-3.272-.808-1.02-.437-2.085-1.036-3.151-1.762-1.066.726-2.131 1.325-3.151 1.762-1.17.502-2.283.79-3.273.808-.992.018-1.946-.242-2.64-.936-.693-.694-.953-1.647-.935-2.64.017-.989.306-2.102.808-3.272.437-1.02 1.036-2.085 1.762-3.151-.726-1.066-1.325-2.131-1.762-3.151-.502-1.17-.79-2.283-.808-3.273-.018-.992.242-1.946.936-2.64.687-.687 1.636-.953 2.64-.935.997.017 2.114.311 3.272.808C9.865 3.244 10.93 3.843 12 4.57c1.066-.726 2.131-1.325 3.151-1.762 1.17-.502 2.283-.79 3.273-.808zm-8.132 3.842a15.997 15.997 0 0 0-2.231-1.195C7.046 4.212 6.194 4.012 5.54 4c-.647-.012-1 .16-1.19.35-.193.192-.362.548-.35 1.19.01.647.207 1.496.646 2.52.305.712.708 1.463 1.195 2.231.646-.8 1.354-1.587 2.108-2.342a29.809 29.809 0 0 1 2.342-2.108zM7.042 12c.686-.89 1.468-1.78 2.323-2.635A27.477 27.477 0 0 1 12 7.04a27.5 27.5 0 0 1 2.635 2.324A27.487 27.487 0 0 1 16.96 12c-.695.9-1.478 1.79-2.324 2.635A27.483 27.483 0 0 1 12 16.96a27.473 27.473 0 0 1-2.635-2.324A27.484 27.484 0 0 1 7.04 12zm-1.2 1.708c-.487.768-.89 1.52-1.195 2.231-.439 1.024-.635 1.873-.646 2.52-.012.642.157.998.35 1.19.192.193.548.362 1.19.35.647-.01 1.496-.207 2.52-.646a15.99 15.99 0 0 0 2.231-1.195A29.82 29.82 0 0 1 7.95 16.05a29.81 29.81 0 0 1-2.108-2.342zm7.866 4.45c.768.487 1.52.89 2.231 1.195 1.024.439 1.873.635 2.52.646.642.012.998-.157 1.19-.35.193-.192.362-.548.35-1.19-.01-.647-.207-1.496-.646-2.52a15.987 15.987 0 0 0-1.195-2.231 29.83 29.83 0 0 1-2.108 2.342 29.817 29.817 0 0 1-2.342 2.108zm4.45-7.866A29.818 29.818 0 0 0 16.05 7.95a29.802 29.802 0 0 0-2.342-2.108 16 16 0 0 1 2.231-1.195c1.024-.439 1.873-.635 2.52-.647.642-.01.998.158 1.19.35.19.19.362.544.35 1.191-.01.653-.211 1.505-.646 2.52a15.997 15.997 0 0 1-1.195 2.231zM12 11a1 1 0 0 1 1 1v.012a1 1 0 1 1-2 0V12a1 1 0 0 1 1-1z"
  />
</svg>
